X: 10042
T: JIG
R: Jig
B: K\"ohler's Violin Repository, v.1, 1885 p.4 #2
F: http://www.archive.org/details/klersviolinrepos01edin
Z: 2011 John Chambers <jc:trillian.mit.edu>
M: 6/8
L: 1/8
K: Bb
"Lively"F |\
Bdc BFB | dBd fdf | "Slower"bag fdf | gec (c2F) |\
Bdc BFB | dBd fdf | bag fdb | fdB B2 :|
D |\
B,>DF {G}FDF | BFD BFD | B,>DF {G}FDF | GEC C3 |\
B,>DF FDF | BDB dfb | gbg fdb | fdB B2 :|

%%sep 2 1 500

